X:21
T:The Girl I Left Behind Me
Z:Jack Campin  *  May 2000  *  http://www.campin.me.uk/
M:2/4
L:1/8
K:G
(g/f/)|ed BG|AG   E>F  |GG GB|(d2 B)(g/f/)|ed BG|AG       E>G|FA DE/F/|G2 G:|
d     |Bd ef|(gd) BG/G/|Bd ef|(g2 f)(g/f/)|ed BG|A/B/A/G/ E>G|FA DE/F/|G2 G:|

